X: 1
T: Bogannach, The
M: 4/4
L: 1/8
R: reel
K: Amin
ABcd e2 dc|egde BGdB|ABcd e2 dc|BAGB A/A/A AG|
ABcd e2 dc|E2 de cdeg|aega e2 dc|BAGB A/A/A AB||
A/A/A ag a>bae|g>age c>dec|dega e2 dc|BAGB A/A/A AG|
A/A/A ag a>bae|g>aeg cdec|dega egdg|BGgB A/A/A e2||
ABcd e2 dc|BGdG gGdB|ABcd e2 dc|BGgB A/A/A e2|
ABcd e2 dg|BGdG gGdB|ABcd egdg|BGgB A/A/A AB||
A/A/A ag aAae|g>age cdec|dega egdg|BGgB A/A/A AB|
A/A/A ag aAae|gaeg cdec|dega egdg|BGgB A/A/A e2||
